X: 12120
T: Evening Prayer Blues
R: reel
M: 4/4
K: Gmajor
|G3D GABc|c-d4d3|d4 cBcd|cB G3G Bc|
dg2g2b gd|cBGD CB,G,G|BGcB G4-|GD ED:|
G3D GABc|dcBG DCB,G,|BG cG c-d2d-|dcBG DCB,G,|BdcB G3d-|
dcBG DCB,G,|BGcG BGcd-|dcBG DCB,G,|BdcB G4-|GDED||

